packages/core/src/svgs/fold.svg

<svg width="24" height="24" viewBox="0 0 24 24" fill="none" xmlns="http://www.w3.org/2000/svg">
<g clip-path="url(#clip0_31_10418)">
<path d="M0 0H24V24H0V0Z" fill="#181B1E"/>
<path d="M9.90418 9C9.12418 9.08571 8.34847 9.36857 7.65847 9.85714C6.59498 10.6168 5.8721 11.7636 5.64529 13.0507C5.41848 14.3378 5.70586 15.6625 6.44561 16.74C6.83565 17.3146 7.34502 17.7984 7.93898 18.1582C8.53295 18.5181 9.19754 18.7457 9.88743 18.8254C10.5773 18.9052 11.2763 18.8352 11.9367 18.6202C12.5971 18.4053 13.2034 18.0505 13.7142 17.58H13.2299C10.5856 17.6057 8.21133 15.4457 8.14276 12.8014C8.10418 11.3914 8.82418 9.99 9.90418 9Z" fill="#0CFFFF"/>
<path d="M10.2856 15.4286C10.7699 16.0544 11.4171 16.3501 12.2014 16.7015C14.7085 17.8158 17.6742 16.7529 18.8271 14.3315C19.0985 13.7523 19.2503 13.1242 19.2734 12.485C19.2966 11.8457 19.1905 11.2084 18.9617 10.611C18.7328 10.0137 18.3859 9.46866 17.9415 9.0085C17.4972 8.54835 16.9646 8.18253 16.3756 7.93293C16.1832 7.84804 15.9856 7.77505 15.7842 7.71436C16.4171 8.55968 16.7449 9.59451 16.7142 10.6501C16.7316 11.328 16.5984 12.0013 16.3242 12.6215C15.9087 13.4692 15.2623 14.1824 14.4594 14.679C13.6565 15.1756 12.7297 15.4354 11.7856 15.4286H10.2856Z" fill="#0BFFFF"/>
<path d="M15 17.0915V14.2972C15.5609 13.8445 16.0134 13.2719 16.3243 12.6215C16.6157 11.9529 16.71 11.2929 16.7143 10.5686C16.7143 9.54007 16.4143 8.53293 15.7843 7.71436C15.9857 7.77436 16.1829 7.84721 16.3757 7.93293C16.5386 8.00578 16.56 8.01436 16.7143 8.10007V16.5386C16.1876 16.841 15.6038 17.0307 15 17.0958V17.0915Z" fill="#0DE4C1"/>
<path d="M15.2572 12.4284C15.6273 11.7457 15.8307 10.9853 15.8511 10.209C15.8714 9.43281 15.708 8.66274 15.3743 7.96162C15.0405 7.2605 14.5459 6.64815 13.9306 6.17449C13.3152 5.70083 12.5967 5.37926 11.8335 5.23599C11.0704 5.09271 10.2841 5.13179 9.53894 5.35004C8.79373 5.56829 8.11064 5.95953 7.54533 6.49187C6.98003 7.02421 6.5485 7.6826 6.28593 8.41336C6.02336 9.14413 5.93717 9.92659 6.03439 10.697C6.45964 9.91863 7.0879 9.27007 7.85236 8.8203C8.61681 8.37053 9.48888 8.13637 10.3758 8.14271C12.8872 8.14271 14.9615 9.99842 15.2615 12.4284H15.2572Z" fill="#0CFFFF"/>
<path d="M15.8571 10.0716C15.8571 10.9287 15.6429 11.7301 15.2571 12.4287C15.2143 12.0559 15.1286 11.7001 15 11.3573V7.29443C15.54 8.08729 15.8571 9.043 15.8571 10.0759V10.0716Z" fill="#0DE4C1"/>
</g>
<defs>
<clipPath id="clip0_31_10418">
<rect width="24" height="24" fill="white"/>
</clipPath>
</defs>
</svg>

<svg xmlns="http://www.w3.org/2000/svg" width="24" height="24" fill="none" viewBox="0 0 24 24"><g clip-path="url(#a)"><path fill="#181B1E" d="M0 0h24v24H0z"/><path fill="#0CFFFF" d="M9.904 9a4.8 4.8 0 0 0-2.246.857 4.99 4.99 0 0 0-1.212 6.883 4.83 4.83 0 0 0 7.268.84h-.484c-2.644.026-5.019-2.134-5.087-4.779-.039-1.41.681-2.811 1.761-3.801"/><path fill="#0BFFFF" d="M10.286 15.429c.484.625 1.131.921 1.915 1.272 2.508 1.115 5.473.052 6.626-2.37a4.757 4.757 0 0 0-2.451-6.398 5 5 0 0 0-.592-.219c.633.846.96 1.88.93 2.936a4.6 4.6 0 0 1-.39 1.971 5.01 5.01 0 0 1-4.538 2.808z"/><path fill="#0DE4C1" d="M15 17.092v-2.795a4.8 4.8 0 0 0 1.324-1.676c.292-.668.386-1.328.39-2.052 0-1.029-.3-2.036-.93-2.855q.303.09.592.219c.163.073.184.081.338.167v8.439a4.4 4.4 0 0 1-1.714.557z"/><path fill="#0CFFFF" d="M15.257 12.428a4.928 4.928 0 1 0-9.223-1.731 4.91 4.91 0 0 1 4.342-2.554c2.511 0 4.586 1.855 4.886 4.285z"/><path fill="#0DE4C1" d="M15.857 10.072c0 .857-.214 1.658-.6 2.357A4.5 4.5 0 0 0 15 11.357V7.294c.54.793.857 1.749.857 2.782z"/></g><defs><clipPath id="a"><path fill="#fff" d="M0 0h24v24H0z"/></clipPath></defs></svg>
